X:1
T:Title
%%score { 1 | 2 }
L:1/8
Q:1/4=100
M:4/4
K:G
V:1 treble nm="Grand Piano"
V:2 bass 
V:1
 B3 c d2 B2 | [DA]3 [^DG] [EG]2 E2 | D3 D G2 G2 | [^CA]2 [CB]2 A4 | B3 c d2 B2 | A3 G [EG]2 E2 | %6
w: S.~M.~Bixby * * *||||||
 G3 E D2 G2 | G2 F2 [B,G]4 | c3 c B2 B2 | A3 A B2 [DA]2 | [DG]3 [DG] [DB]2 [Dd]2 | %11
w: |||||
 [Gd]2 [G^c]2 [Fd]4 | d3 d e2 d2 | d3 B B2 [DA]2 | [G,DG]3 [G,CE] [G,B,D]2 [G,B,G]2 | %15
w: ||||
 [A,CG]2 [A,CF]2 [G,B,G]4 |] %16
w: |
V:2
 [G,D]3 [G,A,D] [G,B,D]2 [G,D]2 | [B,,G,]3 [B,,G,] [C,G,]2 [C,G,C]2 | %2
 [D,F,C]3 [D,F,C] [E,G,B,]2 [E,B,D]2 | [A,,A,]2 [A,,G,]2 [D,F,D]4 | %4
 [G,D]3 [G,A,D] [G,B,D]2 [G,DG]2 | [G,CF]3 [G,B,=F][K:bass] [C,C]2 [C,G,C]2 | %6
 [C,E,C]3 [C,G,C] [D,G,B,]2 [D,B,D]2 | [D,A,C]2 [D,A,C]2 [G,,G,]4 | [G,E]3 [G,E] [G,D]2 [G,D]2 | %9
 [D,F,D]3 [D,F,D] [D,F,D]2 [C,F,]2 | [B,,G,]3 [B,,G,] [G,,G,]2 [G,B,]2 | [E,B,]2 [A,,A,]2 [D,A,]4 | %12
 [G,B,G]3 [G,B,G] [G,CG]2 [G,B,G]2 | [G,B,D]3[K:bass] [G,D] [D,F,D]2 [C,F,]2 | B,,3 C, G,,2 E,2 | %15
 A,,2 D,2 G,,4 |] %16

